X: 1
T: BOY IN THE GAP -- REEL
B: Ryan's Mammoth Collection of Fiddle Tunes
R: reel
M: 2/4
L: 1/16
Z: Contributed 20010907021001 by John Chambers jmchambers:rcn.net
K: D
(uAG)"segno"\
| FDDF .d2(cA) | ABGB ABGE | FDDF .d2(cA) | ((3ABc) (GE) (ED).D2 |
| FDDF .d2(cA) | ABGB ABGE | FDDF .d2(cA) | ((3ABc) (GE) (ED).D2 :|
|: .f2(fg) fedf | .e2(fe) edcB | ABcd efga | fage (ed).d2 |
|  .f2(fg) fedf | edef edcB | ABcd efga | .a2(ge) (ed)"_D.S.".d2 "segno"|]
